rospo-icon-theme-classic-common/32x32/apps/oracle-sqldeveloper.svg

<svg height="32" viewBox="0 0 32 32" width="32" xmlns="http://www.w3.org/2000/svg"><path d="m16 17a14 7 0 0 0 -14.0000001 7 14 7 0 0 0 14.0000001 7 14 7 0 0 0 14-7 14 7 0 0 0 -14-7z" opacity=".2"/><path d="m16 16a14 7 0 0 0 -14.0000001 7 14 7 0 0 0 14.0000001 7 14 7 0 0 0 14-7 14 7 0 0 0 -14-7z" fill="#696969"/><path d="m16 10a14 7 0 0 0 -14.0000001 7 14 7 0 0 0 14.0000001 7 14 7 0 0 0 14-7 14 7 0 0 0 -14-7z" opacity=".2"/><path d="m16 9a14 7 0 0 0 -14.0000001 7 14 7 0 0 0 14.0000001 7 14 7 0 0 0 14-7 14 7 0 0 0 -14-7z" fill="#919191"/><path d="m16 3a14 7 0 0 0 -14.0000001 7 14 7 0 0 0 14.0000001 7 14 7 0 0 0 14-7 14 7 0 0 0 -14-7z" opacity=".2"/><path d="m16 2a14 7 0 0 0 -14.0000001 7 14 7 0 0 0 14.0000001 7 14 7 0 0 0 14-7 14 7 0 0 0 -14-7z" fill="#e4e4e4"/><path d="m16 2a14 7 0 0 0 -14 7 14 7 0 0 0  .046875.4589844 14 7 0 0 1 13.953125-6.4589844 14 7 0 0 1 13.953125 6.5410156 14 7 0 0 0  .046875-.5410156 14 7 0 0 0 -14-7z" fill="#fff" opacity=".2"/><circle cx="24" cy="24" fill-rule="evenodd" opacity=".2" r="8"/><circle cx="24" cy="23" fill="#0ab884" fill-rule="evenodd" r="8"/><path d="m57.646715 45.770672-6.928203 4-6.928203 4v-8-8l6.928203 4z" fill="#fff" transform="matrix(.5051815 0 0 .5 -.122054 .114664)"/></svg>

<svg xmlns="http://www.w3.org/2000/svg" width="32" height="32" version="1.1" viewBox="0 0 32 32">
 <path style="opacity:0.2" d="M 16,17 A 14,7 0 0 0 1.9999999,24 14,7 0 0 0 16,31 14,7 0 0 0 30,24 14,7 0 0 0 16,17 Z"/>
 <path style="fill:#696969" d="M 16,16 A 14,7 0 0 0 1.9999999,23 14,7 0 0 0 16,30 14,7 0 0 0 30,23 14,7 0 0 0 16,16 Z"/>
 <path style="opacity:0.2" d="M 16,10 A 14,7 0 0 0 1.9999999,17 14,7 0 0 0 16,24 14,7 0 0 0 30,17 14,7 0 0 0 16,10 Z"/>
 <path style="fill:#919191" d="M 16,9 A 14,7 0 0 0 1.9999999,16 14,7 0 0 0 16,23 14,7 0 0 0 30,16 14,7 0 0 0 16,9 Z"/>
 <path style="opacity:0.2" d="M 16,3 A 14,7 0 0 0 1.9999999,10 14,7 0 0 0 16,17 14,7 0 0 0 30,10 14,7 0 0 0 16,3 Z"/>
 <path style="fill:#cccccc" d="M 16,2 A 14,7 0 0 0 1.9999999,9 14,7 0 0 0 16,16 14,7 0 0 0 30,9 14,7 0 0 0 16,2 Z"/>
 <path style="fill:#ffffff;opacity:0.2" d="M 16 2 A 14 7 0 0 0 2 9 A 14 7 0 0 0 2.046875 9.4589844 A 14 7 0 0 1 16 3 A 14 7 0 0 1 29.953125 9.5410156 A 14 7 0 0 0 30 9 A 14 7 0 0 0 16 2 z"/>
 <g transform="translate(3,1)" style="opacity:0.2">
  <circle cx="21" cy="23" r="8" style="fill-rule:evenodd"/>
 </g>
 <g transform="translate(3,0)">
  <circle style="fill:#0ab884;fill-rule:evenodd" cx="21" cy="23" r="8"/>
 </g>
 <path style="fill:#ffffff" d="m 57.646715,45.770672 -6.928203,4 -6.928203,4 0,-8 0,-8 6.928203,4 z" transform="matrix(0.5051815,0,0,0.5,-0.12205396,0.1146641)"/>
</svg>
